!!!!SEGMENT: 028_1-12-1a-C-009.krn
!!!COM: Chopin, Fryderyk
!!!OTL: Prelude IX.
!!!OPS: Op. 28
!!!PTL: 24 Préludes pour le Piano
!!!PPR: Catelin
!!!PPP: Paris
!!!NIFC-rismID: 300605092
!!!NIFC-shelfmark: PL-Wbfc 1616/n
!!!OMD: Largo.
!!!system-decoration: {(s1,s2)}
**kern	**kern	**dynam
*part1	*part1	*part1
*staff2	*staff1	*
*	*I"IX.	*
*clefF4	*clefF4	*
*k[f#c#g#d#]	*k[f#c#g#d#]	*
*M4/4	*M4/4	*
*met(c)	*met(c)	*
=1	=1	=1
*	*^	*
*ped	*	*	*
!	!	!	!LO:DY:rj
!	!	!LO:TX:a:t=P:note-head-side tuplet number:problem	!
!	!	!LO:TUP:a	!
4EE	(>4B	12G#L 12E	f
.	.	12BB	.
*Xped	*	*	*
.	.	12G#J 12E	.
*	*	*Xtuplet	*
*ped	*	*	*
4BBB	8.BL	12F#L 12D#	.
.	.	12BB	.
*Xped	*	*	*
.	.	12F#J 12D#	.
.	16BJk	.	.
*ped	*	*	*
4EE	4B	12G#L 12E	.
.	.	12BB	.
.	.	12G#J 12E	.
*Xped	*	*	*
(>8..AAL	4c#	12AL 12E	.
.	.	12C#	.
.	.	12AJ 12E	.
32GG#Jkk	.	.	.
=2	=2	=2	=2
*ped	*	*	*
2FF#	4c#	12AL 12F#	.
.	.	12C#	.
.	.	12AJ 12F#	.
.	8.d#L	12AL 12F#	.
.	.	12C#	.
*Xped	*	*	*
.	.	12AJ 12F#	.
.	16d#Jk	.	.
*ped	*	*	*
4BBB)	4d#	12BL 12F#	.
.	.	12D#	.
.	.	12BJ 12F#)	.
8..BBL	(>4d#	12BL 12G#	.
.	.	12D#	.
.	.	12BJ 12G#	.
(>32BBJkk	.	.	.
*Xped	*	*	*
.	.	.	.
!!LO:LB:g=original
=3	=3	=3	=3
*ped	*	*	*
4CC#)	4e	12BL 12G#	.
.	.	12E	.
.	.	12BJ 12G#	.
*Xped	*	*	*
8..AAL	8.eL	12c#L 12F#	.
.	.	12E	.
.	.	12c#J 12F#	.
.	16eJk	.	.
(<32AAJkk	.	.	.
*ped	*	*	*
4BBB)	4e	12BL 12F#	<
.	.	12E	.
.	.	12BJ 12F#	.
*Xped	*	*	*
.	.	.	.
16qqAAA#X/LL	.	.	.
16qqBBB/JJ	.	.	.
*ped	*	*	*
4BBBT>	8.d#L	12BL 12F#	.
.	.	12D#	.
.	.	12BJ 12F#	.
.	16d#Jk	.	.
16qqAAA#/LL	.	.	.
16qqBBB/JJ	.	.	[
*Xped	*	*	*
.	.	.	.
=4	=4	=4	=4
*ped	*	*	*
4CC#	4d#	12BL 12G#	.
.	.	12E	.
*Xped	*	*	*
.	.	12BJ 12G#	.
*ped	*	*	*
8..FF#L	8.d#L	12A#XL 12F#	.
.	.	12E	.
.	.	12A#J 12F#	.
.	16c#Jk	.	.
*Xped	*	*	*
32FF#Jkk	.	.	.
*ped	*	*	*
4DD#	4c#	12AnL 12F#	<
.	.	12C#	.
.	.	12AJ 12F#	.
16qqCC##X/LL	.	.	.
16qqDD#/JJ	.	.	.
*Xped	*	*	*
4DD#t>	8.c#L	12AL 12F#	.
.	.	12BB	.
.	.	12AJ 12F#	.
.	16BJk	.	.
16qqCC#X'<LL/	.	.	.
16qqDD#'<	.	.	.
16qqEE'<	.	.	.
16qqFF#'<JJ	.	.	[
.	.	.	.
!!LO:LB:g=original
=5	=5	=5	=5
*ped	*	*	*
(>4EE	4B	12G#L 12E	.
.	.	12BB	.
*Xped	*	*	*
.	.	12G#J 12E	.
*ped	*	*	*
4BBB	8.BL	12F#L 12D#	.
.	.	12BB	.
.	.	12F#J 12D#	.
*Xped	*	*	*
.	16BJk	.	.
*	*ped	*	*
!	!LO:TX:b:t=P:w źródle znak pedalizacji na dolnej pięciolinii:problem	!	!
4GGGn	4B	12GnL 12Dn	.
.	.	12BB	.
.	.	12GJ 12D	.
!	!LO:TX:b:Bi:t=cres_:problem:dynamics with extention lines	!	!
!	!	!	!LO:HP:b:Bi:t=cres:ext=ud
8..GGnL	8.BL	12GL 12D	<
.	.	12BB	.
.	.	12GJ 12D	.
.	16BJk	.	.
*Xped	*	*	*
32FFnJkk	.	.	.
=6	=6	=6	=6
*ped	*	*	*
4EE	4cn	12GnL	.
.	.	12Cni	.
.	.	12GJ	.
*Xped	*	*	*
.	.	.	.
*ped	*	*	*
4DDn	4dn	12B-XL 12G	.
.	.	12Dni	.
*Xped	*	*	*
.	.	12B-J 12G	.
*ped	*	*	*
4CCn	4e	12B-L 12G	.
.	.	12E	.
.	.	12B-J 12G	.
8..CnyL 8..CC	8.eL	12cL 12G	.
.	.	12E	.
.	.	12cJ 12G	.
.	16eJk	.	.
*Xped	*	*	*
32BB-XJkk 32BBB-X	.	.	.
!!LO:LB:g=original
=7	=7	=7	=7
*ped	*	*	*
4AA 4AAA	4en	12c#XL 12A	.
.	.	12E	.
*Xped	*	*	*
.	.	12c#J 12A	.
*ped	*	*	*
8..GGnL 8..GGGn	8.eL	12c#L 12B-X	.
.	.	12E	.
*Xped	*	*	*
.	.	12c#J 12B-	.
.	16eJk	.	.
32GGJkk 32GGG	.	.	.
*	*ped	*	*
!	!LO:TX:b:t=P:w źródle znak pedalizacji na dolnej pięciolinii:problem	!	!
4FFn 4FFFn	4fn	12d-XL 12B-	.
*Xped	*	*	*
.	.	12Fni	.
.	.	12d-J 12B-	.
*	*ped	*	*
!	!LO:TX:b:t=P:w źródle znak pedalizacji na dolnej pięciolinii:problem	!	!
4FF-X 4FFF-X	4gn	12d-L 12B-	.
.	.	12Gni	.
*Xped	*	*	*
.	.	12d-J 12B-	[[
=8	=8	=8	=8
*	*ped	*	*
!	!LO:TX:b:t=P:w źródle znak pedalizacji na dolnej pięciolinii:problem	!	!
!	!	!	!LO:DY:rj
2EE-X 2EEE-X	8a-XL	12cnL 12A-X	ff
.	.	12E-X	>
!	!LO:TX:t=P:note position:problem	!	!
.	8e-XJ	.	.
.	.	12cJ 12A-	.
.	8.e-L	12cL 12Gn	.
.	.	12E-	.
*Xped	*	*	*
.	.	12BJ 12G	.
.	16d-XJk	.	.
*	*ped	*	*
!	!LO:TX:b:t=P:w źródle znak pedalizacji na dolnej pięciolinii:problem	!	!
4AAA-X	8.cL	12A-L	.
.	.	12E-	.
.	.	12A-J	.
*Xped	*	*	*
.	16c-XJk	.	]]
*	*ped	*	*
!	!LO:TX:b:t=P:w źródle znak pedalizacji na dolnej pięciolinii:problem	!	!
4BBBn	8.BnL	12G#XL 12D#X	>
.	.	12BB	.
.	.	12AnJ 12D#	.
*Xped	*	*	*
.	16BJk	.	.
=9	=9	=9	=9
*	*ped	*	*
!	!LO:TX:b:t=P:w źródle znak pedalizacji na dolnej pięciolinii:problem	!	!
4EE 4EEE	4B	12G#L 12E	p
*Xped	*	*	*
.	.	12BB	<
.	.	12G#J 12E	.
*ped	*	*	*
4BBB	8..BL	12F#L 12D#	.
.	.	12BB	.
.	.	12F#J 12D#	.
*Xped	*	*	*
.	32BJkk	.	.
*ped	*	*	*
4EE	4B	12G#L 12E	.
.	.	12BB	.
*Xped	*	*	*
.	.	12G#J 12E	.
*ped	*	*	*
8..AAL 8..AAA	4cn	12AL 12E	.
.	.	12Cni	.
.	.	12AJ 12E	.
*Xped	*	*	*
32AAJkk 32AAA	.	.	[[
!!LO:LB:g=original
=10	=10	=10	=10
*ped	*	*	*
4FFn 4FFFn	4cn	12AL 12Fn	.
.	.	12Cni	.
*Xped	*	*	*
.	.	12AJ 12F	.
*ped	*	*	*
4CCn 4CCCn	8..cL	12GnL 12E	.
.	.	12C	.
.	.	12GJ 12E	.
*Xped	*	*	*
.	32cJkk	.	.
*ped	*	*	*
4FF 4FFF	4c	12AL 12F	.
.	.	12C	.
*Xped	*	*	*
.	.	12AJ 12F	.
*ped	*	*	*
8..BB-XL 8..BBB-X	8.dnL	12B-XL 12F	.
.	.	12Dni	.
.	.	12B-J 12F	.
.	16dJk	.	.
*Xped	*	*	*
32BB-Jkk 32BBB-	.	.	.
=11	=11	=11	=11
*ped	*	*	*
!	!LO:TX:b:Bi:t=cres_:problem:dynamics with extention lines	!	!
!	!	!	!LO:HP:b:Bi:t=cres:ext=ud
4GGni 4GGGni	4dn	12B-XL 12Gn	<
.	.	12Dni	.
*Xped	*	*	*
.	.	12B-J 12G	.
*ped	*	*	*
4DDni 4DDDni	8..dL	12AL 12F#X	.
.	.	12Dny	.
.	.	12AJ 12F#	.
*Xped	*	*	*
.	32dJkk	.	.
*ped	*	*	*
!	!	!LO:TX:b:Bi:t=ritenuto.	!
4GGni 4GGGni	4d	12BnL 12G	.
.	.	12Dny	.
*Xped	*	*	*
.	.	12BJ 12G	.
*ped	*	*	*
8..BBL 8..BBB	8..d#XL	12BL 12F#	.
.	.	12D#i	.
.	.	12BJ 12F#	.
*Xped	*	*	*
32BBJkk 32BBB	32eJkk	.	[[
=12	=12	=12	=12
*^	*	*	*
*ped	*	*	*	*
!	!	!	!	!LO:DY:rj
[>2EE: 2EEE:	4ryy	4e	12BL 12G#X	ff
.	.	.	12E	.
.	.	.	12BJ 12G#	.
.	N[4BBB/	8..eL	12BL 12G#	.
.	.	.	12E	.
.	.	.	12BJ 12G#	.
.	.	32eJkk	.	.
2EE] 2BBBN] 2EEE;<)	2ryy	2e;> 2B 2G# 2E)\	2ryy	.
*Xped	*	*	*	*
.	.	.	.	.
*	*	*	*Xtuplet	*
*v	*v	*	*	*
*	*v	*v	*
==	==	==
*-	*-	*-
!!title: @{OTL}; @{OPS} @{ONM} publisher: @{PPR}
!!!RDF**kern: > = above
!!!RDF**kern: < = below
!!!RDF**kern: N = linked
!!!RDF**kern: i = editorial accidental
!!!RDF**dynam: < = "cres", fontstyle="bold-italic"
!!!RDF**dynam: > = "decres", fontstyle="bold-italic"
!!!ENC: Wojciech Jakubiak-Danek
!!!END: 2020-01-29
!!!EED: Mateusz Mrugas
!!!EST: revision finished 2020-02-03
!!!EED2: Emilia Ziętek
!!!EST2: 2020-05-03
!!!rism-genre: Prelude
!!!rism-key: E major
!!!rism-opus: op.  28, no. 9
!!!rism-title: Prelude in E major op.  28, no. 9
!!!rism-permalink: https://opac.rism.info/search?id=300605092&View=rism
!!!rism-773a-OPR: 300605083
!!!rism-parent-permalink: https://opac.rism.info/search?id=300605083&View=rism
